!!!COM: Pordenon, Marco Antonio
!!!CDT:
!!!PTL: Il primo libro de madrigali a quattro voci
!!!PPP: Venice
!!!PPR: Angelo Gardano
!!!PDT: 1580
!!!RISM: P 5106
!!!rime: 560
!!!OTL: Mentre mia stella miri (i.e., Tarquinia se rimiri, Rime 560)
!!!AGN: Madrigal
!!!SCT: Trm0560e
!!!SCA: Trm0560e
!!!original-voices: 4
!!!extant-voices: 4
!!!complete: Y
!!!final: E
**kern	**text	**kern	**text	**kern	**text	**kern	**text
*part4	*part4	*part3	*part3	*part2	*part2	*part1	*part1
*staff4	*staff4	*staff3	*staff3	*staff2	*staff2	*staff1	*staff1
*I"Basso	*	*I"Tenore	*	*I"Alto	*	*I"Canto	*
*I'B	*	*I'T	*	*I'A	*	*I'C	*
*oclefF4	*	*oclefC4	*	*oclefC3	*	*oclefC1	*
*clefF4	*	*clefGv2	*	*clefG2	*	*clefG2	*
*k[]	*	*k[]	*	*k[]	*	*k[]	*
*C:	*	*C:	*	*C:	*	*C:	*
*omet(C|)	*	*omet(C|)	*	*omet(C|)	*	*omet(C|)	*
*M2/1	*	*M2/1	*	*M2/1	*	*M2/1	*
=1	=1	=1	=1	=1	=1	=1	=1
0r	.	0r	.	1e	Men-	2r	.
.	.	.	.	.	.	2b	Men-
.	.	.	.	2d	-tre,	2.dd	-tre,
.	.	.	.	2g	mia	.	.
.	.	.	.	.	.	4b	mia
=2	=2	=2	=2	=2	=2	=2	=2
1r	.	1r	.	4f#X	stel-	4a	stel-
.	.	.	.	4g	-la,	4dd	-la,
.	.	.	.	2a	mi-	2cc	mi-
1E	Men-	1B	Men-	2g#X	-ri,	2b	-ri,
.	.	.	.	2e	Men-	2g#X	Men-
=3	=3	=3	=3	=3	=3	=3	=3
2D	-tre,	2.d	-tre,	2f#X	-tre,	2a	-tre,
2G	mia	.	.	2g	mia	4b	mia
.	.	4B	mia	.	.	2dd	stel-
4F#X	stel-	4A	stel-	4a	stel-	.	.
4G	-la,	4d	-la,	4g	-la	4b	-la
2A	mi-	2c	mi-	2e	mi-	[2a	mi-
=4	=4	=4	=4	=4	=4	=4	=4
1E	-ri	1B	-ri,	0e	-ri,	2a]	.
.	.	.	.	.	.	2g#X	-ri,
2A	I	2c	I	.	.	1r	.
4A	bei	4c	bei	.	.	.	.
4G	ce-	4B	ce-	.	.	.	.
=5	=5	=5	=5	=5	=5	=5	=5
4.F	-le-	2A	-le-	4r	.	2r	.
.	.	.	.	2a	I	.	.
8G	.	.	.	.	.	.	.
4A	.	2c	-sti	.	.	2ee	I
4c	-sti	.	.	2g	bei	.	.
2B-X	gi-	2d	gi-	.	.	4dd	bei
.	.	.	.	4f	ce-	4dd	ce-
2A	-ri,	4e	-ri,	4a	-le-	4.cc	-le-
.	.	4c	I	[4e	-sti	.	.
.	.	.	.	.	.	8dd	.
=6	=6	=6	=6	=6	=6	=6	=6
1r	.	4c	bei	4e]	.	4ee	.
.	.	4A	ce-	2a	gi-	4cc	-sti
.	.	4e	-le-	.	.	2b	gi-
.	.	4e	-sti	4g	-ri,	.	.
2A	I	2c	gi-	2e	I	4a	-ri,
.	.	.	.	.	.	4cc	I
4G	bei	4d	-ri,	4g	bei	4b	bei
4G	ce-	4B	I	4d	ce-	4b	ce-
=7	=7	=7	=7	=7	=7	=7	=7
4.F	-le-	4c	bei	4f	-le-	4a	-le-
.	.	4A	ce-	4f	-sti	2cc	-sti
8G	.	.	.	.	.	.	.
4A	.	4A	-le-	4e	gi-	.	.
4F	-sti	4A	-sti	4d	.	2a	gi-
1E	gi-	4c	gi-	1e	.	.	.
.	.	8BL	.	.	.	8g#iL	.
.	.	8AJ	.	.	.	8f#iJ	.
.	.	2B	.	.	.	2g#i	.
=8	=8	=8	=8	=8	=8	=8	=8
2AA	-ri,	2A	-ri,	2c#X	-ri,	2a	-ri,
2A	Il	2c	Il	2e	Il	4r	.
.	.	.	.	.	.	4a	Il
4F	cie-	4A	cie-	4d	cie-	4a	cie-
4E	-lo es-	4B	-lo es-	4e	-lo es-	4g	-lo es-
4D	-ser	4d	-ser	4f	-ser	4a	-ser
4F	vor-	4d	vor-	4a	vor-	4a	vor-
=9	=9	=9	=9	=9	=9	=9	=9
2C	-re-	2e	-re-	2g	-re-	2cc	-re-
2G	-i,	2d	-i,	2g	-i,	2b	-i,
2r	.	2r	.	2r	.	2r	.
2A	Il	2c	Il	2e	Il	2a	Il
=10	=10	=10	=10	=10	=10	=10	=10
4F	cie-	4A	cie-	4d	cie-	4a	cie-
4E	-lo es-	4B	-lo	4e	-lo es-	4g	-lo es-
4D	-ser	4d	es-	4f	-ser	4a	-ser
4F	vor-	4d	-ser	4a	vor-	4a	vor-
2C	-re-	2e	vor-	2g	-re-	2cc	-re-
4G	-i;	2d	-rei;	2g	-i;	2b	-i;
4G	Per-	.	.	.	.	.	.
=11	=11	=11	=11	=11	=11	=11	=11
4A	-ché	4r	.	4r	.	1r	.
4E	tu	4c	Per-	4g	Per-	.	.
4F	ri-	2c	-ché,	4a	-ché,	.	.
4A	-vol-	.	.	4e	per-	.	.
2G#X	-ges-	2r	.	2.e	-ché	2b	Per-
4A	-si,	4r	.	.	.	2cc	-ché,
4A	Per-	4e	Per-	[4c	tu	.	.
=12	=12	=12	=12	=12	=12	=12	=12
2F	-ché	2f	-ché	4c]	.	2a	per-
.	.	.	.	2d	ri-	.	.
2G	tu	2d	tu	.	.	4b	-ché
.	.	.	.	2B	-vol-	4b	tu
2E	ri-	2e	ri-	.	.	2g	ri-
.	.	.	.	4c	-ges-	.	.
2F	-vol-	2c	-vol-	4A	.	2a	-vol-
.	.	.	.	[4c	.	.	.
=13	=13	=13	=13	=13	=13	=13	=13
2D	-ges-	2f	-ges-	8c]L	.	2dd	-ges-
.	.	.	.	16B	.	.	.
.	.	.	.	16AJ	.	.	.
.	.	.	.	4B	.	.	.
2C	-si	2e	-si	2c	-si	1g	-si
1c	Fis-	2r	.	1e	Fis-	.	.
.	.	[2c	Fis-	.	.	2g	Fis-
=14	=14	=14	=14	=14	=14	=14	=14
2A	-so	4c]	.	2e	-so	2a	-so
.	.	4c	-no	.	.	.	.
2G	ne	2d	ne-	2g	ne	2b	ne
4A	gl'oc-	4c	-gl'oc-	4e	gl'oc-	4cc	gl'oc-
4A	-chi	4c	-chi	4e	-chi	4a	-chi
2E	mie-	2B	mie-	2e	mie-	2g#X	mie-
=15	=15	=15	=15	=15	=15	=15	=15
1AA	-i	2A	-i	2c#X	-i	2a	-i
.	.	2A	Le	2c#i	Le	2e	Le
1r	.	2d	tue	2d	tue	2f#X	tue
.	.	[2c	dol-	[2e	dol-	[2g	dol-
=16	=16	=16	=16	=16	=16	=16	=16
0r	.	4c]	.	4e]	.	4g]	.
.	.	4c	-ci	4e	-ci	4g	-ci
.	.	2d	fa-	2d	fa-	2f	fa-
.	.	2A	-vil-	2c#X	-vil-	2e	-vil-
.	.	2A	-le,	2c#i	-le,	2e	-le,
=17	=17	=17	=17	=17	=17	=17	=17
2D	Io	2d	Io	1r	.	2f	Io
4E	va-	4B	va-	.	.	4g	va-
4F	-gheg-	4A	-gheg-	.	.	4a	-gheg-
4G	-giar,	4B	-giar,	4r	.	4d	-giar,
4G	Io	4B	Io	4d	Io	4g	Io
4E	va-	4B	va-	4e	va-	4g	vag-
4D	-gheg-	4d	-gheg-	4f	-gheg-	4a	-gheg-
=18	=18	=18	=18	=18	=18	=18	=18
4C	-giar	4e	-giar	4g	-giar	4cc	-giar
4G	po-	4d	po-	4g	po-	4b	po-
2A	-tes-	2c#X	-tes-	2e	-tes-	2a	-tes-
2D	-si	4d	-si	1f#X	-si	1a	-si
.	.	4A	Mil-	.	.	.	.
2D	Mil-	2d	-le	.	.	.	.
=19	=19	=19	=19	=19	=19	=19	=19
4G	-le	4B	bel-	2r	.	0r	.
4E	bel-	2cnXi	-lez-	.	.	.	.
4F	-lez-	.	.	4r	.	.	.
4F	-ze	4A	-ze	4d	Mil-	.	.
2E	tue	4B	tue	2g	-le	.	.
.	.	4B	con	.	.	.	.
2C	con	2c	oc-	2e	bel-	.	.
=20	=20	=20	=20	=20	=20	=20	=20
4D	oc-	4A	-chi	2f	-lez-	2a	Mil-
4D	-chi	2A	mil-	.	.	.	.
2BB	mil-	.	.	2d	-ze	4dd	-le
.	.	4G	.	.	.	4b	bel-
2AA	-le,	2A	-le,	4c	tue	4cc	-lez-
.	.	.	.	4e	con	4cc	-ze
2E	con	2G#X	con	4e	oc-	4b	tue
.	.	.	.	4e	-chi	4b	con
=21	=21	=21	=21	=21	=21	=21	=21
4F	oc-	4A	oc-	4.c	mil-	4a	oc-
4F	-chi	4A	-chi	.	.	4a	-chi
.	.	.	.	8d	.	.	.
2E	mil-	2B	mil-	2e	.	2g	mil-
2AA	-le,	2A	-le,	2c#X	-le,	4a	-le,
.	.	.	.	.	.	2a	Mil-
2r	.	2r	.	2d	Mil-	.	.
.	.	.	.	.	.	4dd	-le
=22	=22	=22	=22	=22	=22	=22	=22
0r	.	0r	.	4g	-le	4b	bel-
.	.	.	.	4e	bel-	2cc	-lez-
.	.	.	.	4f	-lez-	.	.
.	.	.	.	4f	-ze	4a	-ze
.	.	.	.	2e	tue	4b	tue
.	.	.	.	.	.	4b	con
.	.	.	.	2c	con	2cc	oc-
=23	=23	=23	=23	=23	=23	=23	=23
1r	.	1r	.	4d	oc-	4a	-chi
.	.	.	.	4d	-chi	2a	mil-
.	.	.	.	2B	mil-	.	.
.	.	.	.	.	.	4g#i	.
2r	.	4r	.	2A	-le,	2a	-le,
.	.	2A	Mil-	.	.	.	.
2D	Mil-	.	.	2r	.	2r	.
.	.	4d	-le	.	.	.	.
=24	=24	=24	=24	=24	=24	=24	=24
4G	-le	4B	bel-	2r	.	0r	.
4E	bel-	2c	-lez-	.	.	.	.
4F	-lez-	.	.	4r	.	.	.
4F	-ze	4A	-ze	4d	Mil-	.	.
2E	tue	4B	tue	4g	-le	.	.
.	.	4B	con	4g	bel-	.	.
2C	con	2c	oc-	4e	-lez-	.	.
.	.	.	.	4e	-ze	.	.
=25	=25	=25	=25	=25	=25	=25	=25
4D	oc-	4A	-chi	2f	tue	2a	Mil-
4D	-chi	2A	mil-	.	.	.	.
2BB	mil-	.	.	2d	con	4dd	-le
.	.	4G	.	.	.	4b	bel-
2AA	-le,	2A	-le,	4c	oc-	4cc	-lez-
.	.	.	.	4e	-chi	4cc	-ze
2E	con	2G#X	con	2e	mil-	2b	tue
=26	=26	=26	=26	=26	=26	=26	=26
2.F	oc-	2.A	oc-	2c	-le,	2a	con
.	.	.	.	2f	con	2.a	oc-
4G	.	4B	.	.	.	.	.
4A	.	4c	.	4e	oc-	.	.
4E	-chi	4B	-chi	4e	-chi	4g#X	-chi
2AA	mil-	2c	mil-	2e	mil-	2a	mil-
=27	=27	=27	=27	=27	=27	=27	=27
0El	-le.	0Bl	-le.	0el	-le.	0g#Xl	-le.
==	==	==	==	==	==	==	==
*-	*-	*-	*-	*-	*-	*-	*-
!!!system-decoration: [*]
!!!RDF**kern: i = editorial accidental
!!!RDF**kern: l = terminal long
!!!ENC: Emiliano Ricciardi
!!!END:
!!!EED: Donnelly, Daniel
!!!EEV: 2020/07/15
!!!YEC: Copyright 2018 Emiliano Ricciardi, All Rights Reserved
!!!ONB: Translated from MusicXML on 2020/07/15
!!@@BEGIN:	VERSEDATA
!!@SOLERTI:	560
!!@CATALOGNUM:	Trm0560
!!@LAST_MODIFIED: 2020/07/12
!!@TITLE:		Tarquinia, se rimiri
!!@GENRE:		madrigale
!!@MANUSRC:	A<sub>3</sub>, C, E<sub>1</sub>, E<sub>7</sub>, F<sub>2</sub>, V<sub>8</sub>, V<sub>9</sub>, V<sub>13/E1</sub>
!!@PRINTSRC:	8, 9, 11, 12, 13, 15, 20, 24, 33, 67, 141, 145, 166, 169
!!@@BEGIN:	VERSES
!!@ABOUTIT:	A la signora Tarquinia Molza la quale studiando la sfera andava la sera a contemplar le stelle.
!!@ABOUTEN:	To lady Tarquinia Molza who, studying the globe, went to contemplate the stars at night.
!!@EDITOR:	Solerti, Angelo
!!@EDITION_TITLE: Le Rime di Torquato Tasso
!!@EDITION_LOC:	Bologna
!!@EDITION_PUB:	Romagnoli-Dall’Acqua
!!@EDITION_DATE:  1898-1902
!!@EDITION_VOL:	3
!!@EDITION_PAGE:  79
!!@TRANSLATOR:	Emiliano Ricciardi and Amyrose McCue Gill
!!@VERSE:
!!	Tarquinia, se rimiri
!!	I bei celesti giri,
!!	Il cielo esser vorrei;
!!	Perché ne gli occhi miei
!!	Fisso tu rivolgessi
!!	Le tue dolci faville,
!!	Io vagheggiar potessi
!!	Mille bellezze tue con luci mille.
!!@TVERSE:
!!	Tarquinia, if I look upon
!!	The beautiful blue spheres,
!!	The sky I wish to be;
!!	So that to my eyes
!!	Raptly you may turn
!!	Your sweet sparks,
!!	And I may long for
!!	Your thousand beauties with a thousand 	lights.
!!@@END:		VERSES
!!@OTHER_CRIT_ED:   Torquato Tasso, <i>Rime d’amore (secondo il codice
!!		Chigiano L VIII 302)</i>, eds. Franco Gavazzeni and
!!		Vercingetorige Martignone, vol. 4 of <i>Edizione
!!		Nazionale delle opere di Torquato Tasso</i>
!!		(Alessandria: Edizioni Dell’Orso, 2004), 171.
!!@ATTRIBUTION_ABOUT:	Secure
!!		<br>
!!		Among other authoritative sources (see Literary
!!		Sources), this poem appears in the autograph Chigiano
!!		L.VIII.302 (Biblioteca Vaticana, Rome), compiled
!!		around 1584&ndash;85.
!!@DATING:	In or before 1571
!!		<br>
!!		The earliest datable appearance of this poem is in a musical setting by Ferrarese composer Luzzasco Luzzaschi published in 1571 (see Musical Settings). In this setting, the text is subtantially different than in later musical and literary sources (see Literary Variants).
!!@DEDICATEE:	Molza, Tarquinia Molza
!!@DEDICATEE_INFO:	(1542-1617)
!!@COMMENTARY:
!!@@END:		VERSEDATA
!!@@BEGIN:	SETTING
!!@CATALOGNUM:	Trm0560e
!!@RIMETITLE:	Tarquinia, se rimiri
!!@SETTINGTITLE:	Mentre, mia stella, miri
!!@SOLERTI:	560
!!@COMPOSER:	Pordenon, Marco Antonio
!!@PRINCEPSTITLE:	Il primo libro de madrigali a quattro voci
!!@PRINCEPSLOC:	Venetia
!!@NORMLOC:	Venice
!!@NORMPUB:	Angelo Gardano
!!@NORMPUBSHORT:	Gardano
!!@PRINCEPSPUB:	Gardano
!!@PRINCEPSYEAR:	1580
!!@PRINCEPSRISM:	P 5106
!!@REPRINTS:	
!!@OVOICES:	4
!!@EXTANTVOICES:	4
!!@PARTBOOKS:	
!!@EXTPARTBOOKS:	
!!@OCLEFS:	C1,C3,C4,F4
!!@OMENSURATION:	Cut-C
!!@OKEYSIG:	-
!!@FINAL:	E
!!@TIMPEDITOR:	Donnelly, Daniel
!!@NOTE:		
!!@@END:		SETTING
